T: Hunters Hill
M: 2/4
L: 1/8
K: Amaj
F|:EA A/B/c/d/|e2 ce|f>e dB|AG FE|
EA AB/c/|d2 ce|B>E GB|[1A2 A>F:|[2A2 Ae/d/||
|:ce ef/g/|a2 g>a|fA df|e2 e/f/e/d/|
ce ef/g/|a2 g>a|fA df|e2 e/f/e/d/|
c2 c/d/e/c/|B2 B/c/d/B/|cA FB|AG FE|
EA AB/c/|d2 ce|B>E GB|[1A2 Ae/d/:|[2A2 A2||
